X: 368
T: Yingmai maodun
L: 1/8
M: 2/4
K: A
b a b c' [I:setbarnb 1]| 
e' a g f | 
b a g f | 
e3f | 
b a b c' | 
e f a c' | 
b a g f | 
e4 | 
a f a b | 
c e f b | 
g f e g | 
f4 | 
e3f | 
a2b c' | 
b a g f | 
e3g | 
f ce2 |]

@@@ Tune index: 9242
